!!!OTL: Wo fehlt es dir, mein Herz (Band 1), S. 87
!!!id: P0802
**kern
*clefG2
*k[f#]
*G:
{4d
4g
4a
=1
4.b
8a
4g
4f#
=2
2g}
4r
=3
{4b
=4
4.g
8d
4.d
8c
=5
2c
2d
=6
4B}
=7
{4d
4g
4a
=8
4.b
8a
4g
4f#
=9
2g}
4r
=10
{4b
=11
4.g
8d
4.d
8c
=12
2c
2d
=13
4B}
2r
=14
{4e
=15
4.e
8d
4e
4f#
=16
2g
4f#
4e
=17
4d
4f#
4.a
8f#
=18
4g}
2r
=19
{4d
=20
4d
4e
4f#
4g
=21
2.a
4cc
=22
4b
4a
4g
8f#
8f#
=23
4g}
==
*-
!!!minrhy: 8
!!!meters: 4/4 ]  ZZ[6
!!!cut: Wo fehlt es dir, mein Herz (Band 1), S. 87
!!!reg: Lothringen
!!!trd: PINCK, Louis: Verklingende Weisen, Bd 1, Metz 1928
!!!rhy1: X_X_X_  X_.XX_X_  X__0_
!!!rhy2: X_  X_.XX_.X  X__X__  X_
!!!key: P0802  08  G 4/4 ]  ZZ[6
!!!mod: HEPTATONIK IONISCH]  AMBITUS[9b
!!!kad: 1-31-311
!!!akz: 1311_1-5-4-5-3_1311_1-5-4-5-3_-6-61-7-521_-5-722311_
!!!fot: 'a__b__a__b__c__d__
!!!for: 'a__b__a__bv_aw_c__
!!!fok: '^a_\__^a_\__~a_^a_
!! PHRAS[AUFTAKTIG]
!!!fkt: Liebesklage?
!! LOTH VKL
!! PR[22] 2K[4] 2G[20] 3K[6] 3G[2] 4A[6] 4Ü[0] 5A[0] 6K[0] 6G[0]
!! 7K[0] 7G[0] 8A[0] MEHR[0] SI[37] ABS[51] SR[24] SP[14]
!! ST[10] 2k[10] 2g[27] 3k[0] 3g[0] 4d[2] 4ü[0] 5d[2] 6k[0] 6g[0]
!! 7k[0] 7g[0] 8d[0] mehr[0] si[41] dm[-4] sr[37] sp[4]
!! 1F[4] 2F[42] 3F[46] 4F[0] LF[0] 2P[4] 3P[4] 4P[0] TRI[0] DF[5] AB[52]
!! TF[0] U3K[0] U3[0] U4[0] U4Ü[0] U5[10] U6K[0] U6[4] U7K[0] U7[4]
!! N1[27] N2K[0] N2[23] N3K[0] N3[13] N4[8] N4Ü[0] N5[12] N6K[0] N6[0]
!!!n7k: 0] N7[0] O1[0] O2K[0] O2[0] O3K[0] O3[0] HÖ[0
